X: 384
T: Bir İsmi Mustafa
C: Dede Efendi
O: Turkey
F: http://compmusic.upf.edu/node/140
N: ussak--tevsihilahi--evsat--bir_ismi_mustafa--dede_efendi
N: makam= ussak
N: form= tevsihilahi
N: usul= evsat = 26/8
M: 26/8
L: 1/16
K: C _2/4B   
Q: 1/4=60
%%MIDI tuningsystem comma53
A4G2A4A4c2_1/4BAA4A4B4A2A4  | G^FGAG2F2FGFED2A2GAGFG2A2GAA4A4A_1/4B  | 
w:   |   | 
AGA2_1/4B2A2c2c2c2B2cBcdcBBAA4A4A2e2  | 
w:   | 
e2e3dc2d2c2_1/4B2A2B2c2d2c3BB2A2e2fede  | \
w:   | 
d2e2e6z2e2dcd2e2dee4g2^fee2fee4d4e2e4d4e3ddeedc2d2cdc_1/4Bc2de  | 
w:   | 
dee4e4e2^f2g2a2e4d2c2_1/4B2cBcdcBBA  | \
w:   | 
A6z2A2e2e2e3dc2d2c2_1/4B2A2B2c2d2c3BA4G2A6A4A4|
w:   | 


